icon-themes/sifr_svg/cmd/sc_pasteonlyformula.svg

<svg viewBox="0 0 16 16" xmlns="http://www.w3.org/2000/svg"><path d="m5 1v3h5v-3zm-2 1c-.554 0-1 .446-1 1v11c0 .554.446 1 1 1h2v-2h-1v-11zm10 2c-1.656854 0-3 1.3431458-3 3v1l-2 1v1h2v3c0 .552285-.447715 1-1 1s-1-.447715-1-1h-1v2.220703c.531654.479085 1.227983.779297 2 .779297 1.656854 0 3-1.343146 3-3v-3l2-1v-1h-2v-1c0-.537224.370717-1 1-1 .552285 0 1 .4477153 1 1h1v-2.2207031c-.531654-.4790849-1.227984-.7792969-2-.7792969z" fill="#555753"/></svg>

<svg xmlns="http://www.w3.org/2000/svg" viewBox="0 0 16 16">
  <path
     style="fill:#555753"
     d="M 5 1 L 5 4 L 10 4 L 10 1 L 5 1 z M 3 2 C 2.446 2 2 2.446 2 3 L 2 14 C 2 14.554 2.446 15 3 15 L 5 15 L 5 13 L 4 13 L 4 2 L 3 2 z M 13 4 C 11.343146 4 10 5.3431458 10 7 L 10 8 L 8 9 L 8 10 L 10 10 L 10 13 C 10 13.552285 9.552285 14 9 14 C 8.447715 14 8 13.552285 8 13 L 7 13 L 7 15.220703 C 7.531654 15.699788 8.227983 16 9 16 C 10.656854 16 12 14.656854 12 13 L 12 10 L 14 9 L 14 8 L 12 8 L 12 7 C 12 6.462776 12.370717 6 13 6 C 13.552285 6 14 6.4477153 14 7 L 15 7 L 15 4.7792969 C 14.468346 4.300212 13.772016 4 13 4 z "
     />
</svg>
